X:1
T:James Gibb editions
T:Partistes os mis amores - Encina
%%score [ 1 2 3 ]
L:1/8
Q:1/4=180
M:4/2
K:C
V:1 treble nm="Alto" snm="A"
V:2 treble-8 nm="Tenor" snm="T"
V:3 bass nm="Bass" snm="B"
V:1
"^Juan del Encina\n(1468-1529)" (E12"^Partistes os mis amores" F4) | G8 A8 | B8 c8 | B8 G8 | %4
w: Par\- *|tis- tes|os mis|a- mo-|
w: ||||
 F8 (E6 F2) | (G4 A8 G4) | A16 | B8 c8 | d8 c8 | A8 (G4 F4- | F4 E2 D2) E8 | D16- | D16 |: A8 A8 | %14
w: res, y *|par\- * *|tió|mi pla-|cer to-|do y *|* * * mu-|rió.||No par-|
w: |||||||||Par- tió|
 A8 F8 | D8 D8 | E16 | E16 | A8 A8 | A8 F8 | D8 D8 | E16 | E16 | E12 F4 | G8 A8 | B8 c8 | B8 G8 | %27
w: tió mi|pen- sa-|mien-|to,|e vi-|no mi|per- di-|mien-|to:|No mu-|rió~el con-|ten- ta-|mien- to|
w: la glo-|ria de|ve-|ros,|no~~el pla-|cer de~~o-|be- de-|ce-|ros;|mas el|te- mor|de per-|de- ros|
 (F8 E6 F2 | G4 A8) G4 | A16 | B8 c8 | d8 c8 | (A8 G4 F4- | F4 E2 D2) E8 | D16- |"^\j" D16 :| %36
w: que * *|* * me|dió|la cau-|sa que|me * *|* * * per-|dió.||
w: que * *|* * cre-|ció,|to- do|mi bien|des\- * *|* * * tru-|yó.||
V:2
 c16 | B8 c8 | d8 e8 | (d4 B8) G4 | (A4 B4) c8 | (B4 A4 B8) | (A8 c8) | d8 e8 | f8 (e4 c4- | %9
w: Par-|tis- tes|os mis|a\- * mo-|res, * y|par\- * *|tió *|mi pla-|cer to\- *|
w: |||||||||
 c4 A4 (B4 d4- | d4 ^c2 B2) c8 | d16- | d16 |: c8 c8 | c8 d8 | B8 B8 | c8 B4 A4) | G16 | c8 c8 | %19
w: * do y *|* * * mu|rió.||No par-|tió mi|pen- sa-|mien\- * *|to,|e vi-|
w: ||||Par- tió|la glo-|ria de|ve\- * *|ros,|no~~el pla-|
 c8 d8 | B8 B8 | (c8 B4 A4) | G16 | c8 c8 | B8 c8 | d8 e8 | (d4 B8) G4 | (A4 B4 c8 | B4 A4) B8 | %29
w: no mi|per- di-|mien\- * *|to:|No mu-|rió~~el con-|ten- ta-|mien\- * to|que * *|* * me|
w: cer de~~o-|be- de-|ce\- * *|ros;|mas el|te- mor|de per-|de\- * ros|que * *|* * cre-|
 (A8 c8) | d8 e8 | f8 (e4 c4- | c4) (A4 B4 d4- | d4 ^c2 B2) c8 | d16- | d16 :| %36
w: dió *|la cau-|sa que *|* me * *|* * * per-|dió.||
w: ció, *|to- do|mi bien *|* des\- * *|* * * tru-|yó.||
V:3
 (C,12 D,4) | E,8 A,8 | G,8 C,8 | G,8 E,8 | D,8 (C,6 D,2) | (E,4 F,4 E,8) | (F,8 A,8) | G,8 E,8 | %8
w: Par\- *|tis- tes|os mis|a- mo-|res, y *|par\- * *|tió *|mi pla-|
w: ||||||||
 D,8 A,8 | F,8 (D,6 E,2 | F,2 G,2 A,4) A,8 | D,16- | D,16 |: F,8 F,8 | F,8 D,8 | G,8 G,8 | C,16 | %17
w: cer to-|do y *|* * * mu-|rió.||No par-|tió mi|pen- sa-|mien-|
w: |||||Par- tió|la glo-|ria de|ve-|
 C,16 | F,8 F,8 | F,8 D,8 | G,8 G,8 | C,16 | C,16 | C,12 D,4 | E,8 A,8 | G,8 C,8 | G,8 E,8 | %27
w: to,|e vi-|no mi|per- di-|mien-|to:|No mu-|rió~~el con-|ten- ta-|mien- to|
w: ros,|no~~el pla-|cer de~~o-|be- de-|ce-|ros;|mas el|te- mor|de per-|de- ros|
 (D,8 C,6 D,2 | E,4 F,4) E,8 | (F,8 A,8) | G,8 E,8 | D,8 A,8 | (F,8 D,6 E,2 | F,2 G,2 A,4) A,8 | %34
w: que * *|* * me|dió *|la cau-|sa que|me * *|* * * per-|
w: que * *|* * cre-|ció, *|to- do|mi bien|des\- * *|* * * tru-|
 D,16- | D,16 :| %36
w: dió.||
w: yó.||

